X: 4
T: Joe Derrane's
R: jig
M: 6/8
L: 1/8
K: Bmin
A | BeB BAF | AFE EFD | DFA def | afe dBA |BeB BFF | AFE EFE | DFA def | edB B2 :|d | efe edB | AFF dFF | def afa | bc'b aff |bff afa | baf edB | def afd | edB B2 :|


Tune 3321	Setting 21276

